X: 11153
T: Dùn Beag
R: jig
M: 6/8
K: Bminor
|:BBB Bde|f2 a fef|feB eee|fed edc|
BBB Bde|f2 a fef|fee edc|dcA B2 A:|
|:BBB afa|eac afa|eac afa|eac cBA|
BBB afa|eac afa|eac cBA|BBB BBA:|
|:BBB aff|fee ecc|feB eee|fed edc|
BBB aff|fee ecc|fee eac|cBA B2 A:|
|:BBB aff|eac cBA|eac cde|fac cBA|
BBB aff|eac cBA|fae ada|1 cBA BBA:|2 cBA B3||

